z_dist/img/bg/bp1024/dark-about-header-wave.svg

<svg width="1024" height="844" fill="none" xmlns="http://www.w3.org/2000/svg"><path fill-rule="evenodd" clip-rule="evenodd" d="M1024 0H0v777.6l42.667-15.36c42.666-15.36 128-46.08 213.333-56.32 56.889-6.827 113.778-4.551 170.667-2.276 28.444 1.138 56.889 2.276 85.333 2.276 26.21 0 52.419-2.308 78.629-4.616 59.124-5.205 118.247-10.411 177.371 10.873 20.152 3.599 29.924 7.38 40.881 11.619 10.696 4.138 22.52 8.713 46.23 13.981 48 10.667 99.2 42.312 126.222 69.974 27.027 27.662 42.667 35.84 42.667 35.84V0z" fill="#0D090A"/></svg>

<svg width="1024" height="844" viewBox="0 0 1024 844" fill="none" xmlns="http://www.w3.org/2000/svg">
<path fill-rule="evenodd" clip-rule="evenodd" d="M1024 0H0V624V777.6L42.6666 762.24C85.3333 746.88 170.667 716.16 256 705.92C312.889 699.093 369.778 701.369 426.667 703.644C455.111 704.782 483.556 705.92 512 705.92C538.21 705.92 564.419 703.612 590.629 701.304C649.753 696.099 708.876 690.893 768 712.177C788.152 715.776 797.924 719.557 808.881 723.796C819.577 727.934 831.401 732.509 855.111 737.777C903.111 748.444 954.311 780.089 981.333 807.751C1008.36 835.413 1024 843.591 1024 843.591V624V0Z" fill="#0D090A"/>
</svg>
